fs/video_clip_off_16_regular.svg

<svg viewBox="0 0 16 16" fill="none" xmlns="http://www.w3.org/2000/svg" height="1em" width="1em">
  <path d="M12.195 12.9021L14.1464 14.8536C14.3417 15.0488 14.6583 15.0488 14.8536 14.8536C15.0488 14.6583 15.0488 14.3417 14.8536 14.1464L1.85355 1.14645C1.65829 0.951184 1.34171 0.951184 1.14645 1.14645C0.951184 1.34171 0.951184 1.65829 1.14645 1.85355L2.88472 3.59183C2.34353 4.05041 2 4.73509 2 5.5V10.5C2 11.8807 3.11929 13 4.5 13H11.5C11.7412 13 11.9744 12.9659 12.195 12.9021ZM11.2929 12H4.5C3.67157 12 3 11.3284 3 10.5V5.5C3 5.0111 3.23389 4.57684 3.59589 4.30299L6.5 7.20711V10.1794C6.5 10.4293 6.77363 10.5828 6.98686 10.4525L8.69903 9.40613L11.2929 12ZM8.73992 6.61882L10.417 8.2959C10.5755 8.05354 10.5185 7.70573 10.246 7.53921L8.73992 6.61882ZM13 10.5C13 10.617 12.9866 10.7309 12.9613 10.8402L13.7375 11.6164C13.9055 11.2804 14 10.9012 14 10.5V5.5C14 4.11929 12.8807 3 11.5 3H5.12109L6.12109 4H11.5C12.3284 4 13 4.67157 13 5.5V10.5Z" fill="#212121"/>
</svg>

<svg viewBox="0 0 16 16" fill="none" xmlns="http://www.w3.org/2000/svg" height="1em" width="1em">
  <path d="m12.195 12.902 1.951 1.952a.5.5 0 0 0 .708-.708l-13-13a.5.5 0 1 0-.708.708l1.739 1.738A2.495 2.495 0 0 0 2 5.5v5A2.5 2.5 0 0 0 4.5 13h7c.241 0 .474-.034.695-.098ZM11.293 12H4.5A1.5 1.5 0 0 1 3 10.5v-5c0-.489.234-.923.596-1.197L6.5 7.207v2.972c0 .25.274.404.487.274l1.712-1.047L11.293 12ZM8.74 6.619l1.677 1.677a.54.54 0 0 0-.171-.757L8.74 6.62ZM13 10.5c0 .117-.013.23-.039.34l.777.776A2.49 2.49 0 0 0 14 10.5v-5A2.5 2.5 0 0 0 11.5 3H5.121l1 1H11.5A1.5 1.5 0 0 1 13 5.5v5Z" fill="#212121"/>
</svg>
